Obsidian/actions/22s/kstars_hgrid.svg

<svg height="22" viewBox="0 0 22 22" width="22" xmlns="http://www.w3.org/2000/svg"><path d="m4.0292969 0-.703125 1.8085938c-1.1429-.3439-2.2590719-.8036657-3.3261719-1.38476568v1.38867188c.9327.465 1.8919.8576031 2.875 1.1582031l-1.4941406 3.8457031c-.46930003-.214-.9277594-.4588968-1.3808594-.7167968v1.4082031c.30873.15908.61679062.3210206.93164062.4628906l-.93164062 2.3984379v3.417968l.0546875-.140625c2.3068 1.1254 4.7957406 1.744588 7.3066406 1.867188l.0019531.486328h1.2363282v-.464844c2.5299996-.041 5.0513906-.587531 7.4003906-1.644531v-3.703125l-.689453-1.78125c.234-.089.457453-.2047344.689453-.3027344v-1.3457031c-.377.173-.753625.3461875-1.140625.4921875l-1.595703-4.1074219c.93-.2496 1.845328-.5722437 2.736328-.9648437v-1.3730469c-1.03.4952-2.094547.8937344-3.185547 1.1777344l-.771484-1.9824219h-1.337891l.878906 2.2558594c-.994.1837-1.9998121.2801156-3.0078121.2910156l-.0058594-2.546875h-1.2480469l.0078125 2.5175781c-.9368-.0564-1.8712156-.1824719-2.7910156-.3886719l.828125-2.1289062zm.0546875 3.2949219c1.0695.25028 2.1564468.4002675 3.2480468.4609375l.0117188 4.5859375c-1.6363-.122-3.2581531-.4707813-4.8144531-1.0507813zm7.9570316.1347656 1.642578 4.21875c-1.6607.49689-3.378357.7486375-5.0976565.7421875l-.0078125-4.6054688c1.161-.012105 2.319891-.1294887 3.462891-.3554687zm-9.9609379 5.015625c1.7021.63417 3.4769782 1.0114656 5.2675781 1.1347656l.0117188 4.6953129c-2.3574-.124-4.6888094-.724875-6.84960938-1.796875zm12.0546879.359375 1.511718 3.8789065c-2.2333 1.0345-4.636981 1.573134-7.0507809 1.615234l-.0078125-4.6718749c1.8714004.0056 3.7415754-.2722356 5.5468754-.8222656z" fill="#bebebe" transform="translate(3 3)"/></svg>

<svg xmlns="http://www.w3.org/2000/svg" width="22" height="22" viewBox="0 0 22 22">
 <defs>
  <style id="current-color-scheme" type="text/css">
   .ColorScheme-Text { color:#bebebe; } .ColorScheme-Highlight { color:#4285f4; }
  </style>
 </defs>
 <path style="fill:currentColor" class="ColorScheme-Text" d="M 4.0292969 0 L 3.3261719 1.8085938 C 2.1832719 1.4646938 1.0671 1.0049281 0 0.42382812 L 0 1.8125 C 0.9327 2.2775 1.8919 2.6701031 2.875 2.9707031 L 1.3808594 6.8164062 C 0.91155937 6.6024062 0.4531 6.3575094 0 6.0996094 L 0 7.5078125 C 0.30873 7.6668925 0.61679062 7.8288331 0.93164062 7.9707031 L 0 10.369141 L 0 13.787109 L 0.0546875 13.646484 C 2.3614875 14.771884 4.8504281 15.391072 7.3613281 15.513672 L 7.3632812 16 L 8.5996094 16 L 8.5996094 15.535156 C 11.129609 15.494156 13.651 14.947625 16 13.890625 L 16 10.1875 L 15.310547 8.40625 C 15.544547 8.31725 15.768 8.2015156 16 8.1035156 L 16 6.7578125 C 15.623 6.9308125 15.246375 7.104 14.859375 7.25 L 13.263672 3.1425781 C 14.193672 2.8929781 15.109 2.5703344 16 2.1777344 L 16 0.8046875 C 14.97 1.2998875 13.905453 1.6984219 12.814453 1.9824219 L 12.042969 0 L 10.705078 0 L 11.583984 2.2558594 C 10.589984 2.4395594 9.5841719 2.535975 8.5761719 2.546875 L 8.5703125 0 L 7.3222656 0 L 7.3300781 2.5175781 C 6.3932781 2.4611781 5.4588625 2.3351062 4.5390625 2.1289062 L 5.3671875 0 L 4.0292969 0 z M 4.0839844 3.2949219 C 5.1534844 3.5452019 6.2404312 3.6951894 7.3320312 3.7558594 L 7.34375 8.3417969 C 5.70745 8.2197969 4.0855969 7.8710156 2.5292969 7.2910156 L 4.0839844 3.2949219 z M 12.041016 3.4296875 L 13.683594 7.6484375 C 12.022894 8.1453275 10.305237 8.397075 8.5859375 8.390625 L 8.578125 3.7851562 C 9.739125 3.7730512 10.898016 3.6556675 12.041016 3.4296875 z M 2.0800781 8.4453125 C 3.7821781 9.0794825 5.5570563 9.4567781 7.3476562 9.5800781 L 7.359375 14.275391 C 5.001975 14.151391 2.6705656 13.550516 0.50976562 12.478516 L 2.0800781 8.4453125 z M 14.134766 8.8046875 L 15.646484 12.683594 C 13.413184 13.718094 11.009503 14.256728 8.5957031 14.298828 L 8.5878906 9.6269531 C 10.459291 9.6325531 12.329466 9.3547175 14.134766 8.8046875 z" transform="translate(3 3)"/>
</svg>
